X: 439
T: A Tune For Emily Ball
R: reel
M: 4/4
K: Amajor
A2BA GAEA|cAA2 agec|dedB B2de|dBB2 BAGB|
A2BA GAEA|cAA2 agec|dedB B2DE|GABd cAA2:|
A2GE AGED|DECE DEDC|B,2CD CA,B,2|CDCA, B,>EFG|
A2GE AGEF|FEFA GEEB|cAAc B>EFG|A2GA FAE2:|

